images/icons/social/twitter.svg

<svg viewBox="0 0 24 19" xmlns="http://www.w3.org/2000/svg"><path d="m96.2770909 16.2363636c-.8545454.3818182-1.7774545.6363637-2.7410909.7498182.9861818-.5912727 1.7410909-1.5272727 2.0996364-2.6407273-.9229091.5454546-1.9454546.9454546-3.032 1.1592728-.8727273-.9272728-2.1134546-1.5047273-3.4865455-1.5047273-2.6363636 0-4.7730909 2.1367273-4.7730909 4.7730909 0 .3723636.0407273.736.1229091 1.0865455-3.968-.2-7.4865455-2.1003637-9.8407273-4.9905455-.4094545.7047273-.6450909 1.5272727-.6450909 2.4 0 1.6545455.8407273 3.1178182 2.1229091 3.9730909-.7818182-.0225454-1.5178182-.2407273-2.1636364-.5956363v.058909c0 2.3134546 1.6458182 4.2458182 3.832 4.6814546-.4.1090909-.8225454.168-1.2589091.168-.3090909 0-.6043636-.032-.8996363-.0865455.6094545 1.8952728 2.3730909 3.2770909 4.4589091 3.3185455-1.6363637 1.2814545-3.6909091 2.0458182-5.9316364 2.0458182-.3861818 0-.7636364-.0225455-1.1410909-.0683637 2.1185455 1.3592728 4.6269091 2.1454546 7.3229091 2.1454546 8.7818182 0 13.5861818-7.2770909 13.5861818-13.5861818 0-.2087273-.0043636-.4138182-.0138182-.6181819.9316364-.6683636 1.7410909-1.5090909 2.3818182-2.4683636z" fill="#fff" fill-rule="evenodd" transform="translate(-73 -14)"/></svg>

<?xml version="1.0" encoding="UTF-8"?>
<svg viewBox="0 0 24 19" version="1.1" xmlns="http://www.w3.org/2000/svg" xmlns:xlink="http://www.w3.org/1999/xlink">
    <g stroke="none" stroke-width="1" fill="none" fill-rule="evenodd">
        <g transform="translate(-449.000000, -3149.000000)" fill="#FFFFFF">
            <g transform="translate(376.000000, 3135.000000)">
                <path d="M96.2770909,16.2363636 C95.4225455,16.6181818 94.4996364,16.8727273 93.536,16.9861818 C94.5221818,16.3949091 95.2770909,15.4589091 95.6356364,14.3454545 C94.7127273,14.8909091 93.6901818,15.2909091 92.6036364,15.5047273 C91.7309091,14.5774545 90.4901818,14 89.1170909,14 C86.4807273,14 84.344,16.1367273 84.344,18.7730909 C84.344,19.1454545 84.3847273,19.5090909 84.4669091,19.8596364 C80.4989091,19.6596364 76.9803636,17.7592727 74.6261818,14.8690909 C74.2167273,15.5738182 73.9810909,16.3963636 73.9810909,17.2690909 C73.9810909,18.9236364 74.8218182,20.3869091 76.104,21.2421818 C75.3221818,21.2196364 74.5861818,21.0014545 73.9403636,20.6465455 L73.9403636,20.7054545 C73.9403636,23.0189091 75.5861818,24.9512727 77.7723636,25.3869091 C77.3723636,25.496 76.9498182,25.5549091 76.5134545,25.5549091 C76.2043636,25.5549091 75.9090909,25.5229091 75.6138182,25.4683636 C76.2232727,27.3636364 77.9869091,28.7454545 80.0727273,28.7869091 C78.4363636,30.0683636 76.3818182,30.8327273 74.1410909,30.8327273 C73.7549091,30.8327273 73.3774545,30.8101818 73,30.7643636 C75.1185455,32.1236364 77.6269091,32.9098182 80.3229091,32.9098182 C89.1047273,32.9098182 93.9090909,25.6327273 93.9090909,19.3236364 C93.9090909,19.1149091 93.9047273,18.9098182 93.8952727,18.7054545 C94.8269091,18.0370909 95.6363636,17.1963636 96.2770909,16.2370909 L96.2770909,16.2363636 Z"></path>
            </g>
        </g>
    </g>
</svg>
